X: 1883
T: Arniston Castle
R: strathspey
M: 4/4
K: Amajor
|:(3agf|e<Ae>c A>ce>c|d>ac>a B>A (3Bcd|e<Ae>c A>ce>c|d>f (3efg a<A:|
A>B|A<ag>a f>ae>c|d>ac>a B>AB>c|A<ag>a f>ae>c|d>f (3efg a<AA>B|
A<ag>a f>ae>a|d>ac>a B>AB>c|A>cB>d c>ed>f|e>fg>e a<A||

